static/images/icons/git-branch.svg

<?xml version="1.0" encoding="UTF-8"?>
<svg width="10px" height="16px" viewBox="0 0 10 16" version="1.1" xmlns="http://www.w3.org/2000/svg" xmlns:xlink="http://www.w3.org/1999/xlink">
    <!-- Generator: Sketch 40.3 (33839) - http://www.bohemiancoding.com/sketch -->
    <title>git-branch</title>
    <desc>Created with Sketch.</desc>
    <defs></defs>
    <g id="Octicons" stroke="none" stroke-width="1" fill="none" fill-rule="evenodd">
        <g id="git-branch" fill="#000000">
            <path d="M10,5 C10,3.89 9.11,3 8,3 C6.89,3 6,3.89 6,5 C6,5.73 6.41,6.38 7,6.72 L7,7.02 C6.98,7.54 6.77,8 6.37,8.4 C5.97,8.8 5.51,9.01 4.99,9.03 C4.16,9.05 3.51,9.19 2.99,9.48 L2.99,4.72 C3.58,4.38 3.99,3.74 3.99,3 C3.99,1.89 3.1,1 1.99,1 C0.88,1 0,1.89 0,3 C0,3.73 0.41,4.38 1,4.72 L1,11.28 C0.41,11.63 0,12.27 0,13 C0,14.11 0.89,15 2,15 C3.11,15 4,14.11 4,13 C4,12.47 3.8,12 3.47,11.64 C3.56,11.58 3.95,11.23 4.06,11.17 C4.31,11.06 4.62,11 5,11 C6.05,10.95 6.95,10.55 7.75,9.75 C8.55,8.95 8.95,7.77 9,6.73 L8.98,6.73 C9.59,6.37 10,5.73 10,5 L10,5 Z M2,1.8 C2.66,1.8 3.2,2.35 3.2,3 C3.2,3.65 2.65,4.2 2,4.2 C1.35,4.2 0.8,3.65 0.8,3 C0.8,2.35 1.35,1.8 2,1.8 L2,1.8 Z M2,14.21 C1.34,14.21 0.8,13.66 0.8,13.01 C0.8,12.36 1.35,11.81 2,11.81 C2.65,11.81 3.2,12.36 3.2,13.01 C3.2,13.66 2.65,14.21 2,14.21 L2,14.21 Z M8,6.21 C7.34,6.21 6.8,5.66 6.8,5.01 C6.8,4.36 7.35,3.81 8,3.81 C8.65,3.81 9.2,4.36 9.2,5.01 C9.2,5.66 8.65,6.21 8,6.21 L8,6.21 Z" id="Shape"></path>
        </g>
    </g>
</svg>

<?xml version="1.0" encoding="utf-8"?>
<!-- Generator: Adobe Illustrator 20.0.0, SVG Export Plug-In . SVG Version: 6.00 Build 0)  -->
<svg version="1.1" id="Layer_1" xmlns="http://www.w3.org/2000/svg" xmlns:xlink="http://www.w3.org/1999/xlink" x="0px" y="0px"
	 viewBox="0 0 10 16" style="enable-background:new 0 0 10 16;" xml:space="preserve">
<style type="text/css">
	.st0{fill:#322F33;}
</style>
<title>git-branch</title>
<desc>Created with Sketch.</desc>
<g id="Octicons">
	<g id="git-branch">
		<path id="Shape" class="st0" d="M10,5c0-1.1-0.9-2-2-2S6,3.9,6,5c0,0.7,0.4,1.4,1,1.7V7c0,0.5-0.2,1-0.6,1.4C6,8.8,5.5,9,5,9
			c-0.8,0-1.5,0.2-2,0.4V4.7c0.6-0.3,1-1,1-1.7c0-1.1-0.9-2-2-2S0,1.9,0,3c0,0.7,0.4,1.4,1,1.7v6.6c-0.6,0.4-1,1-1,1.7
			c0,1.1,0.9,2,2,2s2-0.9,2-2c0-0.5-0.2-1-0.5-1.4c0.1-0.1,0.5-0.4,0.6-0.5C4.3,11.1,4.6,11,5,11c1.1-0.1,1.9-0.4,2.8-1.2
			s1.2-2,1.2-3h0C9.6,6.4,10,5.7,10,5L10,5z M2,1.8c0.7,0,1.2,0.5,1.2,1.2S2.7,4.2,2,4.2S0.8,3.7,0.8,3S1.4,1.8,2,1.8L2,1.8z
			 M2,14.2c-0.7,0-1.2-0.6-1.2-1.2c0-0.7,0.6-1.2,1.2-1.2s1.2,0.5,1.2,1.2C3.2,13.7,2.7,14.2,2,14.2L2,14.2z M8,6.2
			C7.3,6.2,6.8,5.7,6.8,5S7.3,3.8,8,3.8S9.2,4.4,9.2,5S8.6,6.2,8,6.2L8,6.2z"/>
	</g>
</g>
</svg>
